!!!OTL: Hao cao ge
!!!ARE: Asia, China,ÿGansu, Kangxian
!! I, 139
!!!SCT: C1421
!!!YEM: Copyright 1995, estate of Helmut Schaffrath.
**kern
*ICvox
*Ivox
!! Mixed meters:  2/4; 3/4
*M2/4
*k[b-]
*F:
{8cc
16cc
16dd
4ff
=1
16gg
16aa
16gg
16ff
16dd
8.cc
=2
4ff
8cc
8cc
=3
16b-
8.g
4r}
=4
*M3/4
{8.cc
16dd
2gg
=5
*M2/4
16ff
16gg
16ff
16dd
4cc
=6
4dd
8.ff
16dd
=7
8cc
16cc
16b-
4g}
=8
{16cc
16dd
8gg
8.ff
16dd
=9
8cc
8dd
8cc
16cc
16dd
=10
8.ff
16gg
8dd
8dd
=11
4cc
4cc}
==
!!!AGN: Shange, Tiange. Nongtian laodong chang
!!!ONB: ESAC (Essen Associative Code) Database: HUANG
!!!AMT: irregular
!!!AIN: vox
!!!EED: Helmut Schaffrath
!!!EEV: 1.0
*-
!!!OTL: Jiaosheng laoban ni xi ting
!!!ARE: Asia, China,ÿYunnan, Gejiu
!! II, 51
!!!SCT: C1484
!!!YEM: Copyright 1995, estate of Helmut Schaffrath.
**kern
*ICvox
*Ivox
*M2/4
*k[b-e-]
*B-:
{8ccc
8ccc
8fff
16ddd
16ccc
=1
2ccc
=2
4.ccc]
8ddd
=3
8bb-
8ddd
8ccc
8r}
=4
{8bb-
8ccc
8ccc
16aa
16gg
=5
4.ff
8dd
=6
4gg
8ff
8gg
=7
2cc}
=8
{16ff
16dd
16cc
16dd
16ff
16dd
16ff
16gg
=9
8ccc
16gg
16ccc
8.aa
16gg
=10
4.ff
8dd
=11
4gg
8ff
8gg
=12
2cc}
==
!!!AGN: Shange
!!!AMT: simple duple
!!!AIN: vox
!!!EED: Helmut Schaffrath
!!!EEV: 1.0
*-
